X: 13679
T: Foot Of Our Stairs, The
R: strathspey
M: 4/4
K: Edorian
|:E<BB>A G<BG>F|E<BB>A G<ED>F|E<BB>A G<BF<A|G<EF<D E<BE>F:|
|:(3GBd c>A d<Bc>A|(3GBd c>A B<EE>F|(3GBd c>A d<Bc>A|d<Bc>A B<GA>F:|
|:B<EE>D E>FG>A|B<EE>D (3FGA (3Bcd|B<EE>D E>FG>A|(3Bcd A>G F<DD>F:|
|:(3GBd c>A d<Bc>A|(3GBd c>A B<EE>F|(3GBd c>A d<Bc>A|d<Bc>A B<GA>F:|

